icons-dark/actions/24/document-save-all.svg

<?xml version="1.0" encoding="UTF-8" standalone="no"?>
<!-- Created with Inkscape (http://www.inkscape.org/) -->

<svg
   xmlns:dc="http://purl.org/dc/elements/1.1/"
   xmlns:cc="http://creativecommons.org/ns#"
   xmlns:rdf="http://www.w3.org/1999/02/22-rdf-syntax-ns#"
   xmlns:svg="http://www.w3.org/2000/svg"
   xmlns="http://www.w3.org/2000/svg"
   xmlns:sodipodi="http://sodipodi.sourceforge.net/DTD/sodipodi-0.dtd"
   xmlns:inkscape="http://www.inkscape.org/namespaces/inkscape"
   width="24"
   height="24"
   id="svg3869"
   version="1.1"
   inkscape:version="0.91 r13725"
   sodipodi:docname="document-save-all.svg">
  <defs
     id="defs3871">
    <inkscape:perspective
       sodipodi:type="inkscape:persp3d"
       inkscape:vp_x="0 : 12 : 1"
       inkscape:vp_y="0 : 1000 : 0"
       inkscape:vp_z="24 : 12 : 1"
       inkscape:persp3d-origin="12 : 8 : 1"
       id="perspective4146" />
    <inkscape:perspective
       sodipodi:type="inkscape:persp3d"
       inkscape:vp_x="0 : 12 : 1"
       inkscape:vp_y="0 : 1000 : 0"
       inkscape:vp_z="24 : 12 : 1"
       inkscape:persp3d-origin="12 : 8 : 1"
       id="perspective4090" />
    <clipPath
       clipPathUnits="userSpaceOnUse"
       id="clipPath16">
      <path
         d="m 0,706.465 1490.926,0 L 1490.926,0 0,0 0,706.465 Z"
         id="path18" />
    </clipPath>
    <clipPath
       clipPathUnits="userSpaceOnUse"
       id="clipPath24">
      <path
         d="m 22.1953,686.117 1447.7347,0 0,-667.1902 -1447.7347,0 L 22.1953,686.117 Z"
         id="path26" />
    </clipPath>
    <clipPath
       clipPathUnits="userSpaceOnUse"
       id="clipPath4534">
      <rect
         ry="15.999986"
         y="8.0000038"
         x="8.0000114"
         height="31.999971"
         width="31.999989"
         id="rect4536"
         style="fill:url(#linearGradient4538);fill-opacity:1;stroke:none" />
    </clipPath>
    <clipPath
       clipPathUnits="userSpaceOnUse"
       id="clipPath4584">
      <rect
         ry="15.999986"
         y="507.798"
         x="392.57144"
         height="31.999971"
         width="31.999989"
         id="rect4586"
         style="fill:url(#linearGradient4588);fill-opacity:1;stroke:none" />
    </clipPath>
    <clipPath
       clipPathUnits="userSpaceOnUse"
       id="clipPath4550">
      <rect
         ry="15.999986"
         y="507.798"
         x="392.57144"
         height="31.999971"
         width="31.999989"
         id="rect4552"
         style="fill:url(#linearGradient4554);fill-opacity:1;stroke:none" />
    </clipPath>
    <clipPath
       clipPathUnits="userSpaceOnUse"
       id="clipPath4568">
      <rect
         ry="15.999986"
         y="507.798"
         x="392.57144"
         height="31.999971"
         width="31.999989"
         id="rect4570"
         style="fill:url(#linearGradient4572);fill-opacity:1;stroke:none" />
    </clipPath>
    <clipPath
       clipPathUnits="userSpaceOnUse"
       id="clipPath4528">
      <rect
         ry="15.999986"
         y="8.0000038"
         x="8.0000114"
         height="31.999971"
         width="31.999989"
         id="rect4530"
         style="fill:url(#linearGradient4532);fill-opacity:1;stroke:none" />
    </clipPath>
    <clipPath
       clipPathUnits="userSpaceOnUse"
       id="clipPath4578">
      <rect
         ry="15.999986"
         y="507.798"
         x="392.57144"
         height="31.999971"
         width="31.999989"
         id="rect4580"
         style="fill:url(#linearGradient4582);fill-opacity:1;stroke:none" />
    </clipPath>
    <clipPath
       clipPathUnits="userSpaceOnUse"
       id="clipPath4562">
      <rect
         ry="15.999986"
         y="507.798"
         x="392.57144"
         height="31.999971"
         width="31.999989"
         id="rect4564"
         style="fill:url(#linearGradient4566);fill-opacity:1;stroke:none" />
    </clipPath>
    <clipPath
       clipPathUnits="userSpaceOnUse"
       id="clipPath4544">
      <rect
         ry="15.999986"
         y="507.798"
         x="392.57144"
         height="31.999971"
         width="31.999989"
         id="rect4546"
         style="fill:url(#linearGradient4548);fill-opacity:1;stroke:none" />
    </clipPath>
    <clipPath
       clipPathUnits="userSpaceOnUse"
       id="clipPath4390">
      <rect
         ry="15.999986"
         y="8.0000038"
         x="8.0000114"
         height="31.999971"
         width="31.999989"
         id="rect4392"
         style="fill:url(#linearGradient4532);fill-opacity:1;stroke:none" />
    </clipPath>
    <clipPath
       clipPathUnits="userSpaceOnUse"
       id="clipPath4407">
      <rect
         ry="15.999986"
         y="507.798"
         x="392.57144"
         height="31.999971"
         width="31.999989"
         id="rect4409"
         style="fill:url(#linearGradient4582);fill-opacity:1;stroke:none" />
    </clipPath>
    <clipPath
       clipPathUnits="userSpaceOnUse"
       id="clipPath4424">
      <rect
         ry="15.999986"
         y="507.798"
         x="392.57144"
         height="31.999971"
         width="31.999989"
         id="rect4426"
         style="fill:url(#linearGradient4566);fill-opacity:1;stroke:none" />
    </clipPath>
    <clipPath
       clipPathUnits="userSpaceOnUse"
       id="clipPath4441">
      <rect
         ry="15.999986"
         y="507.798"
         x="392.57144"
         height="31.999971"
         width="31.999989"
         id="rect4443"
         style="fill:url(#linearGradient4548);fill-opacity:1;stroke:none" />
    </clipPath>
    <clipPath
       id="clipPath4528-1"
       clipPathUnits="userSpaceOnUse">
      <rect
         style="fill:url(#linearGradient4532);fill-opacity:1;stroke:none"
         id="rect4530-7"
         width="31.999989"
         height="31.999971"
         x="8.0000114"
         y="8.0000038"
         ry="15.999986" />
    </clipPath>
    <clipPath
       id="clipPath4578-8"
       clipPathUnits="userSpaceOnUse">
      <rect
         style="fill:url(#linearGradient4582);fill-opacity:1;stroke:none"
         id="rect4580-7"
         width="31.999989"
         height="31.999971"
         x="392.57144"
         y="507.798"
         ry="15.999986" />
    </clipPath>
    <clipPath
       id="clipPath4562-8"
       clipPathUnits="userSpaceOnUse">
      <rect
         style="fill:url(#linearGradient4566);fill-opacity:1;stroke:none"
         id="rect4564-8"
         width="31.999989"
         height="31.999971"
         x="392.57144"
         y="507.798"
         ry="15.999986" />
    </clipPath>
    <clipPath
       id="clipPath4544-1"
       clipPathUnits="userSpaceOnUse">
      <rect
         style="fill:url(#linearGradient4548);fill-opacity:1;stroke:none"
         id="rect4546-1"
         width="31.999989"
         height="31.999971"
         x="392.57144"
         y="507.798"
         ry="15.999986" />
    </clipPath>
  </defs>
  <sodipodi:namedview
     id="base"
     pagecolor="#ffffff"
     bordercolor="#666666"
     borderopacity="1.0"
     inkscape:pageopacity="0.0"
     inkscape:pageshadow="2"
     inkscape:zoom="22.627416"
     inkscape:cx="11.061087"
     inkscape:cy="12.032563"
     inkscape:document-units="px"
     inkscape:current-layer="layer1"
     showgrid="true"
     fit-margin-top="0"
     fit-margin-left="0"
     fit-margin-right="0"
     fit-margin-bottom="0"
     inkscape:window-width="1366"
     inkscape:window-height="709"
     inkscape:window-x="-4"
     inkscape:window-y="0"
     inkscape:window-maximized="1"
     inkscape:showpageshadow="false"
     inkscape:object-nodes="true"
     inkscape:snap-bbox="true">
    <inkscape:grid
       type="xygrid"
       id="grid4132" />
    <sodipodi:guide
       position="4,18"
       orientation="18,0"
       id="guide4138" />
    <sodipodi:guide
       position="5,3"
       orientation="0,18"
       id="guide4140" />
    <sodipodi:guide
       position="20,2.0000174"
       orientation="-18,0"
       id="guide4142" />
    <sodipodi:guide
       position="2,21"
       orientation="0,-18"
       id="guide4144" />
    <sodipodi:guide
       position="3,19.000017"
       orientation="16,0"
       id="guide4146" />
    <sodipodi:guide
       position="2,4"
       orientation="0,16"
       id="guide4148" />
    <sodipodi:guide
       position="21,20"
       orientation="-16,0"
       id="guide4150" />
    <sodipodi:guide
       position="2,20"
       orientation="0,-16"
       id="guide4152" />
  </sodipodi:namedview>
  <metadata
     id="metadata3874">
    <rdf:RDF>
      <cc:Work
         rdf:about="">
        <dc:format>image/svg+xml</dc:format>
        <dc:type
           rdf:resource="http://purl.org/dc/dcmitype/StillImage" />
        <dc:title></dc:title>
      </cc:Work>
    </rdf:RDF>
  </metadata>
  <g
     inkscape:label="Capa 1"
     inkscape:groupmode="layer"
     id="layer1"
     transform="translate(-326,-532.3622)">
    <g
       transform="translate(327,-498)"
       id="layer1-1"
       inkscape:label="Capa 1">
      <path
         id="rect4195"
         transform="translate(0,1030.3622)"
         d="M 7,3.0039062 7,4 7,7 8,7 8,4 l 2,0 0,3 1,0 0,-3 2,0 0,3 3,0 0,-3 0.582031,0 L 18,5.4179688 18,14 l -2,0 0,1 2,0 1,0 0,-1 0,-8.2421875 0,-0.7539063 -0.0039,0 -1.996094,-2 -10,0 z M 3,8 l 0,1 0,10 0,1 1,0 2,0 1,0 4,0 1,0 2,0 1,0 0,-1 0,-8.242188 0,-0.753906 L 15,10 14.996094,10 13,8.0039062 13,8 3,8 Z m 1,1 2,0 0,3 0,1 6,0 0,-1 0,-3 0.582031,0 L 14,10.417969 14,19 l -2,0 0,-4 -6,0 0,1 0,3 -2,0 0,-10 z m 3,0 2,0 0,3 -2,0 0,-3 z m 0,7 4,0 0,3 -4,0 0,-3 z"
         style="fill:#f2f2f2;fill-opacity:1;stroke:none;stroke-opacity:1"
         inkscape:connector-curvature="0" />
      <rect
         style="color:#000000;text-decoration:none;text-decoration-line:none;text-decoration-style:solid;text-decoration-color:#000000;white-space:normal;clip-rule:nonzero;display:inline;overflow:visible;visibility:visible;opacity:1;isolation:auto;mix-blend-mode:normal;color-interpolation:sRGB;color-interpolation-filters:linearRGB;solid-color:#000000;solid-opacity:1;fill:#1a1a1a;fill-opacity:1;fill-rule:nonzero;stroke:none;stroke-width:1;stroke-linecap:butt;stroke-linejoin:miter;stroke-miterlimit:4;stroke-dasharray:none;stroke-dashoffset:0;stroke-opacity:1;color-rendering:auto;image-rendering:auto;shape-rendering:auto;text-rendering:auto;enable-background:accumulate"
         id="BG_MESSAGE"
         width="18"
         height="19.000021"
         x="-19.999996"
         y="1033.3622"
         ry="0" />
      <path
         style="font-style:normal;font-variant:normal;font-weight:300;font-stretch:normal;font-size:medium;line-height:125%;font-family:Canter;-inkscape-font-specification:'Canter Light';letter-spacing:0px;word-spacing:0px;fill:#52d563;fill-opacity:1;stroke:none;stroke-width:1px;stroke-linecap:butt;stroke-linejoin:miter;stroke-opacity:1"
         d="m -13.800781,1036.5594 0,2.8536 0.138672,0 0,-2.8536 -0.138672,0 z m 3.173828,3.0235 0,0.125 0.5,0 0,3.375 0.06445,0 0,0.6426 c 0.005,0.31 0.289219,0.4962 0.574219,0.6562 0.285,0.16 0.566406,0.2706 0.566406,0.5606 l 0,0.2441 c 0,0.32 -0.166094,0.5645 -0.496094,0.5645 -0.0332,0 -0.06385,0 -0.09375,-0.01 l -0.03906,-0.1133 -0.138672,0 0,0.047 c -0.16373,-0.1012 -0.245161,-0.2934 -0.238281,-0.5 l 0,-0.3007 -0.134766,0 0,0.3007 c -0.004,0.3138 0.143357,0.5471 0.373047,0.6485 l 0,3.3047 0.138672,0 0,-3.0743 1.05664,3.0743 0.134766,0 0,-3.5 -0.134766,0 0,3.1113 -0.970703,-2.8613 c 0.0159,10e-4 0.03057,0 0.04687,0 0.43,0 0.63086,-0.3203 0.63086,-0.6953 l 0,-0.2657 c 0,-0.33 -0.34625,-0.489 -0.65625,-0.664 -0.245,-0.14 -0.463516,-0.261 -0.478516,-0.541 l 0,-0.7149 c 0,-0.37 0.188984,-0.5488 0.458984,-0.5488 0.15442,0 0.262525,0.058 0.333985,0.1504 l 0,0.4804 0.111328,0 0,0.3223 0.134766,0 0,-0.3223 0.878906,0 0,-0.1308 -0.88086,0 c -0.005,-0.1434 -0.0408,-0.2715 -0.103515,-0.375 l 0,-0.459 0.779297,0 0,-0.125 -0.779297,0 0,-2.2852 0.984375,0 0,-0.125 -1.125,0 0,2.836 c -0.0893,-0.066 -0.201175,-0.1035 -0.333985,-0.1035 -0.26702,0 -0.440546,0.1328 -0.529297,0.332 l 0,-2.9395 0.5,0 0,-0.125 -1.134765,0 z m -3.173828,0.029 0,0.4472 0,2.2813 -0.195313,0 0,0.125 0.195313,0 0,0.6172 0.138672,0 0,-0.6172 0.166015,0 0,3.375 0.134766,0 0,-3.375 0.5,0 0,-0.125 -0.800781,0 0,-0.1836 0.996093,0 0,0.9258 0.134766,0 0,-3.4707 -0.134766,0 0,2.416 -0.996093,0 0,-1.9688 0,-0.4472 -0.138672,0 z m 2.207031,0 -0.537109,3.4707 0.140625,0 0.144531,-0.9649 0.714844,0 0.15039,0.9649 0.140625,0 -0.550781,-3.4707 -0.203125,0 z m 0.103516,0.1758 0.339843,2.1953 -0.673828,0 0.333985,-2.1953 z m -1.001954,2.5527 0,3.2715 c -0.0117,-5e-4 -0.02326,0 -0.03516,0 -0.39,0 -0.640625,0.319 -0.640625,0.709 l 0,2.1406 c 0,0.39 0.240391,0.7051 0.650391,0.7051 0.43,0 0.625,-0.3543 0.625,-0.6993 l 0,-0.2558 -0.134766,0 0,0.2558 c 0,0.3 -0.155234,0.5645 -0.490234,0.5645 -0.34,0 -0.509766,-0.2853 -0.509766,-0.5703 l 0,-2.1406 c 0,-0.36 0.209766,-0.5743 0.509766,-0.5743 0.009,0 0.01709,0 0.02539,0 l 0,0.094 0.138672,0 0,-0.068 c 0.21578,0.075 0.326172,0.2987 0.326172,0.5469 l 0.0039,0.2754 0.13086,0 0,-0.2793 c 0,-0.3271 -0.177118,-0.6016 -0.460938,-0.6816 l 0,-0.7188 0.996094,0 0,0.9258 0.03711,0 c -0.0921,0.1238 -0.138672,0.2832 -0.138672,0.4492 l 0,2.1856 c 0,0.38 0.239531,0.6894 0.644531,0.6894 0.42,0 0.625,-0.3403 0.625,-0.6953 l 0,-2.1738 c 0,-0.2799 -0.128282,-0.5302 -0.357422,-0.6387 l 0,-3.3164 -0.138672,0 0,3.2715 c -0.0405,-0.01 -0.08417,-0.012 -0.128906,-0.012 -0.16949,0 -0.304873,0.053 -0.408203,0.1386 l 0,-3.3984 -0.134766,0 0,2.4453 -0.996094,0 0,-2.4453 -0.138672,0 z m -1.308593,3.2891 0,3.5 0.138672,0 0,-3.5 -0.138672,0 z m 2.986328,0.1 c 0.0461,0 0.08977,0.01 0.128906,0.016 l 0,0.096 0.138672,0 0,-0.029 c 0.1511,0.1039 0.222656,0.2941 0.222656,0.4844 l 0,2.1738 c 0,0.305 -0.160234,0.5605 -0.490234,0.5605 -0.345,0 -0.503906,-0.2597 -0.503906,-0.5547 l 0,-2.1855 c 0,-0.31 0.158906,-0.5605 0.503906,-0.5605 z"
         id="MESSAGE"
         inkscape:connector-curvature="0" />
    </g>
  </g>
</svg>

<svg xmlns="http://www.w3.org/2000/svg" viewBox="0 0 24 24">
  <defs id="defs3051">
    <style type="text/css" id="current-color-scheme">
      .ColorScheme-Text {
        color:#f2f2f2
      }
      </style>
  </defs>
 <path 
    style="fill:currentColor;fill-opacity:1;stroke:none" 
    d="M 7 3.0039062 L 7 4 L 7 7 L 8 7 L 8 4 L 10 4 L 10 7 L 11 7 L 11 4 L 13 4 L 13 7 L 16 7 L 16 4 L 16.582031 4 L 18 5.4179688 L 18 14 L 16 14 L 16 15 L 18 15 L 19 15 L 19 14 L 19 5.7578125 L 19 5.0039062 L 18.996094 5.0039062 L 17 3.0039062 L 7 3.0039062 z M 3 8 L 3 9 L 3 19 L 3 20 L 4 20 L 6 20 L 7 20 L 11 20 L 12 20 L 14 20 L 15 20 L 15 19 L 15 10.757812 L 15 10.003906 L 15 10 L 14.996094 10 L 13 8.0039062 L 13 8 L 3 8 z M 4 9 L 6 9 L 6 12 L 6 13 L 12 13 L 12 12 L 12 9 L 12.582031 9 L 14 10.417969 L 14 19 L 12 19 L 12 15 L 6 15 L 6 16 L 6 19 L 4 19 L 4 9 z M 7 9 L 9 9 L 9 12 L 7 12 L 7 9 z M 7 16 L 11 16 L 11 19 L 7 19 L 7 16 z "
    class="ColorScheme-Text"
     transform="translate(1,1)"
    />  
</svg>
